modules/themify-icons/icons/microsoft-alt.svg

<?xml version="1.0" encoding="utf-8"?>
<!-- Generated by IcoMoon.io -->
<!DOCTYPE svg PUBLIC "-//W3C//DTD SVG 1.1//EN" "http://www.w3.org/Graphics/SVG/1.1/DTD/svg11.dtd">
<svg version="1.1" xmlns="http://www.w3.org/2000/svg" xmlns:xlink="http://www.w3.org/1999/xlink" width="17" height="17" viewBox="0 0 17 17">
<g>
</g>
	<path d="M0 2.339l6.967-0.959v6.732h-6.967v-5.773zM0 14.661l6.967 0.959v-6.65h-6.967v5.691zM7.734 1.277v6.835h9.266v-8.112l-9.266 1.277zM7.734 15.723l9.266 1.277v-8.030h-9.266v6.753z" fill="#000000" />
</svg>

<svg xmlns="http://www.w3.org/2000/svg" width="17" height="17"><path d="M0 2.339l6.967-.959v6.732H0V2.339zm0 12.322l6.967.959V8.97H0v5.691zM7.734 1.277v6.835H17V0L7.734 1.277zm0 14.446L17 17V8.97H7.734v6.753z"/></svg>
